src/assets/create-load-direction.svg

<svg width="30" height="160" viewBox="0 0 30 160" fill="none" xmlns="http://www.w3.org/2000/svg">
<circle cx="15" cy="15" r="14.5" stroke="url(#paint0_linear_387_730)" stroke-dasharray="2 2"/>
<path d="M13.27 10.214H15.706L19.612 20H17.078L16.294 17.984H12.682L11.898 20H9.35L13.27 10.214ZM15.678 16.08L14.488 12.79L13.284 16.08H15.678Z" fill="url(#paint1_linear_387_730)"/>
<circle cx="15" cy="145" r="14.5" stroke="url(#paint2_linear_387_730)" stroke-dasharray="2 2"/>
<path d="M10.63 140.214H15.586C16.5287 140.214 17.2707 140.447 17.812 140.914C18.3627 141.381 18.638 142.048 18.638 142.916C18.638 143.327 18.5447 143.709 18.358 144.064C18.1713 144.419 17.9053 144.699 17.56 144.904C18.036 145.091 18.386 145.361 18.61 145.716C18.834 146.061 18.946 146.514 18.946 147.074C18.946 147.671 18.806 148.194 18.526 148.642C18.246 149.081 17.868 149.417 17.392 149.65C16.9253 149.883 16.4027 150 15.824 150H10.63V140.214ZM15.04 144.092C15.768 144.092 16.132 143.751 16.132 143.07C16.132 142.687 16.0387 142.426 15.852 142.286C15.6653 142.137 15.3807 142.062 14.998 142.062H13.108V144.092H15.04ZM15.194 148.152C15.614 148.152 15.9267 148.073 16.132 147.914C16.3373 147.755 16.44 147.475 16.44 147.074C16.44 146.673 16.3327 146.383 16.118 146.206C15.9033 146.019 15.5767 145.926 15.138 145.926H13.108V148.152H15.194Z" fill="url(#paint3_linear_387_730)"/>
<line x1="14.5" y1="34" x2="14.5" y2="126" stroke="url(#paint4_linear_387_730)" stroke-dasharray="2 2"/>
<defs>
<linearGradient id="paint0_linear_387_730" x1="15" y1="0" x2="15" y2="30" gradientUnits="userSpaceOnUse">
<stop stop-color="#001F50"/>
<stop offset="1" stop-color="#0047B6"/>
</linearGradient>
<linearGradient id="paint1_linear_387_730" x1="14.5" y1="5" x2="14.5" y2="24" gradientUnits="userSpaceOnUse">
<stop stop-color="#001F50"/>
<stop offset="1" stop-color="#0047B6"/>
</linearGradient>
<linearGradient id="paint2_linear_387_730" x1="15" y1="130" x2="15" y2="160" gradientUnits="userSpaceOnUse">
<stop stop-color="#001F50"/>
<stop offset="1" stop-color="#0047B6"/>
</linearGradient>
<linearGradient id="paint3_linear_387_730" x1="15.5" y1="135" x2="15.5" y2="154" gradientUnits="userSpaceOnUse">
<stop stop-color="#001F50"/>
<stop offset="1" stop-color="#0047B6"/>
</linearGradient>
<linearGradient id="paint4_linear_387_730" x1="13.5" y1="34" x2="13.5" y2="126" gradientUnits="userSpaceOnUse">
<stop stop-color="#001F50"/>
<stop offset="1" stop-color="#0047B6"/>
</linearGradient>
</defs>
</svg>

<svg width="30" height="160" fill="none" xmlns="http://www.w3.org/2000/svg"><circle cx="15" cy="15" r="14.5" stroke="url(#paint0_linear_387_730)" stroke-dasharray="2 2"/><path d="M13.27 10.214h2.436L19.612 20h-2.534l-.784-2.016h-3.612L11.898 20H9.35l3.92-9.786zm2.408 5.866l-1.19-3.29-1.204 3.29h2.394z" fill="url(#paint1_linear_387_730)"/><circle cx="15" cy="145" r="14.5" stroke="url(#paint2_linear_387_730)" stroke-dasharray="2 2"/><path d="M10.63 140.214h4.956c.943 0 1.685.233 2.226.7.55.467.826 1.134.826 2.002 0 .411-.093.793-.28 1.148a2.09 2.09 0 01-.798.84c.476.187.826.457 1.05.812.224.345.336.798.336 1.358 0 .597-.14 1.12-.42 1.568-.28.439-.658.775-1.134 1.008-.467.233-.99.35-1.568.35H10.63v-9.786zm4.41 3.878c.728 0 1.092-.341 1.092-1.022 0-.383-.093-.644-.28-.784-.187-.149-.471-.224-.854-.224h-1.89v2.03h1.932zm.154 4.06c.42 0 .733-.079.938-.238.205-.159.308-.439.308-.84 0-.401-.107-.691-.322-.868-.215-.187-.541-.28-.98-.28h-2.03v2.226h2.086z" fill="url(#paint3_linear_387_730)"/><path stroke="url(#paint4_linear_387_730)" stroke-dasharray="2 2" d="M14.5 34v92"/><defs><linearGradient id="paint0_linear_387_730" x1="15" y1="0" x2="15" y2="30" gradientUnits="userSpaceOnUse"><stop stop-color="#001F50"/><stop offset="1" stop-color="#0047B6"/></linearGradient><linearGradient id="paint1_linear_387_730" x1="14.5" y1="5" x2="14.5" y2="24" gradientUnits="userSpaceOnUse"><stop stop-color="#001F50"/><stop offset="1" stop-color="#0047B6"/></linearGradient><linearGradient id="paint2_linear_387_730" x1="15" y1="130" x2="15" y2="160" gradientUnits="userSpaceOnUse"><stop stop-color="#001F50"/><stop offset="1" stop-color="#0047B6"/></linearGradient><linearGradient id="paint3_linear_387_730" x1="15.5" y1="135" x2="15.5" y2="154" gradientUnits="userSpaceOnUse"><stop stop-color="#001F50"/><stop offset="1" stop-color="#0047B6"/></linearGradient><linearGradient id="paint4_linear_387_730" x1="13.5" y1="34" x2="13.5" y2="126" gradientUnits="userSpaceOnUse"><stop stop-color="#001F50"/><stop offset="1" stop-color="#0047B6"/></linearGradient></defs></svg>
